X:1
T:Tres Cantus Sacri in Parasceve
T:J. Nowialis, op. 7
T:Tres Cantus Sacri in Parasceve
T:VEXILLA  REGIS *(full text of new version)
C:J. Nowialis, op. 7
%%score { ( 1 2 ) ( 3 4 ) }
L:1/8
Q:1/4=50
M:4/4
K:G
V:1 treble nm="P1"
V:2 treble 
V:3 bass nm="P2"
V:4 bass 
V:1
!p!"^Largo" (B3 A) G2 F2 | E6 F2 |!<(! (G3 A) B2!<)! B2 | c4"^-" B2 d2 | (e3"^-" d"^-" c2) B2 | %5
w: Ca- * li- ga-|ve- runt|o- * cu- li|me- i a|fle- * * tu|
w: |||||
w: |||||
w: |||||
w: |||||
w: |||||
 ((A2 d2)) !fermata!d4 |!p! B2 A2 c2 B2 | A4 G4 | A6 A2 |"^rit." B4"^rit." B2 B2 | %10
w: me- * o,|qui- a e- lon-|ga- tus|est a|me, qui con-|
w: |||||
w: |||||
w: |||||
w: |||||
w: |||||
!>(! A3 F G2!>)! F2 |!pp! E4 z4 |"^-" z2!f! E2"^-" e3 d | c2 c2!>(! B3 G!>)! | A6!pp! z2 | B6 A2 | %16
w: so- la- ba- tur|me.|Vi- de- te,|o- mnes po- pu-|li!|Si est|
w: ||* * te,||||
w: ||||||
w: ||||||
w: ||||||
w: |||||Si est|
 G4"^-" G4 | A3"^-" A B4 |"^-"!<(! E2 F2!<)! A2 G2 |"^rit.""^-""^rit.""^-" (F8- | %20
w: do- lor|* * mi-|lis * * *|si-|
w: ||||
w: ||||
w: ||||
w: ||||
w: do- lor|si- mi- lis|si- cut do- lor|me-|
"^-" F2"^-""^-""^-" E4"^-""^-" ^D2) | !fermata!E8!fine! ||[M:3/4]!p! z6 | z6 | %24
w: me- * *|us.|||
w: ||||
w: ||||
w: ||||
w: ||||
w: |us.|||
"^-""^-""^-""^-""^-" z6 |"^-" z4!f! F2 | G2 B2 Bc | d4 d2 | d2 e3 e | e2"^rit." g4 | %30
w: |qui|tran- si- tis per|vi- am,|at- ten- di-|te et|
w: ||||||
w: ||||||
w: ||||||
w: ||||||
w: ||||||
"^rit." e2!p! d4 | !fermata!d6 ||[M:4/4]!pp! B6 BA | G4 F4 | A3 G"^-" F4- | F4 G2 Bc | %36
w: vi- de-|te|Si est *|do- lor|si- * *|lis si- cut *|
w: ||||||
w: ||||||
w: ||||||
w: ||||||
w: ||||si- mi- lis|_ _ _ _|
"^rit.""^rit." d2 cB"^-" (A4!D.C.! |"^-""^-""^-"!<(! F8)!<)! | !fermata![EG]8 || %39
w: do- lor * me-||us.|
w: |||
w: |||
w: |||
w: |||
w: |||
[K:F][M:4/4]!p!"^Andante"[Q:1/4=80] A4 | A2 A2 A4- |"^-"!>(! A4 A2!>)!!<(! A2 | c2 c2!<)!"^-" (c4 | %43
w: Po-|pu- le me-|* us, quid|fe- ci ti-|
w: ||||
w: ||||
w: ||||
w: ||||
w: ||||
"^-"!>(! B8) |!mf! !fermata![EA]8 | B2 c2 d2 dd | d2 d2 d4 |"^rit.""^rit." ^c4 d2 A2 | %48
w: |bi?|aut in quo con- tri-|sta- vi te?|res- pon- de|
w: |||||
w: |||||
w: |||||
w: |||||
w: |||||
 G4!>)! !fermata!E4 || F4 A2 d2 | c2 B2 A4 | z2 c2 c4 | B2 A2 c4 | A6 z2 |!f! B2 B4 B2 | %55
w: mi- hi.|Qui- a e-|du- xi te|de ter-|ra Ae- gy-|pti:|pa- ra- sti|
w: |||||||
w: |||||||
w: |||||||
w: |||||||
w: |||||||
 d4"^-" d4 | d2 e2 f3 e | (d6"^-" ^c2) |[M:3/4]"^@""^@" d8 ||!p! A3 A A2 | B4 G2 | A4 z2 || %62
w: cru- *|Sal- va- * to-|tu- *|o.|A- * os|o The-|os.|
w: |||||||
w: |||||||
w: |||||||
w: |||||||
w: |||||||
[M:4/4]!f! c4 d4 | c4 !fermata!c4 ||[M:3/4]!p! A3 A A2 | B4 G2 | A4 z2 ||[M:4/4]!f! c6 c2 | %68
w: San- ctus|De- us.|A- gi- os|is- chy-|ros.|San- ctus|
w: ||||||
w: ||||||
w: ||||||
w: ||||||
w: ||||||
 (f3 e"^-" d4) | !fermata![Ec]8 ||!p! A3 A A2 A2 | c3 c c2 d2 | d4"^-" c4 | B4 !fermata!A4 | %74
w: for- * *|tis.|A- gi- os a-|tha- na- tos, e-|lei- *|i- mas.|
w: ||||||
w: ||||||
w: ||||||
w: ||||||
w: ||||||
!mf! A3 A A2 A2 | G4 F4 |"^rit.""^rit." G2 A2 c2 F2 |!>(! (G3"^-" F"^-""^-" E4)!>)! | %78
w: San- ctus im- mor-|ta- lis,|mi- se- re- re|no- * *|
w: ||||
w: ||||
w: ||||
w: ||||
w: ||||
 !fermata!F8!dacoda! ||1!ff!"^Allegro moderato"[Q:1/4=120] d16 || d4 A2 A2 | A4 A4 | %82
w: bis.|V.~~Quid~~ultra~~deboi|fa- ce- re|ti- bi:|
w: ||||
w: ||||
w: ||||
w: ||||
w: ||||
 B2 c2!>(! B4!>)! |!<(! A6 z2!<)! |!p!!<(! G16!<)! |!>(! A2 A2!>)! G4 |!<(! c2 cc d2 d2 | %87
w: et non fe-|ci?|Ego~quidam~plan-|ta- vi te|vi- ne- am me- am|
w: |||||
w: |||||
w: |||||
w: |||||
w: |||||
 f4 c2 d2!<)! | c3 B A4 |"^accel." B2 B2 B4 | A4 G4 | A2 A2 A4 | c2 c2 c4 | =B4 z4 | c16 | c4 c4 | %96
w: spe- ci- o-|sis- si- mam:|et tu fa-|cta es|mi- hi ni-|mis a- ma-|ra.|Aceto~~namque|si- tim|
w: |||||||||
w: |||||||||
w: |||||||||
w: |||||||||
w: |||||||||
 d4 f2 f2 | e4 ^c4 |"^rit." z2 d2 d2 dd | d2 d2 c2 B2 | c4 A4 |"^rit." F2 G2 A2 G2 | %102
w: me- am po-|ta- sti:|et * lan- ce-|per- fo- ra- sti|la- tus|Sal- va- to- ri|
w: ||||||
w: ||||||
w: ||||||
w: ||||||
w: ||||||
!>(! (F4"^-" E4) |!p! [DD]8!D.S.! ||2!f! G4"^CODA" c4 || c16 | B4 A4 | z2 G2 G2 G2 | A4 A2!>)! A2 | %109
w: tu- *|o.|E- go|propter~~te~~|~~flagellavi~~Ae-|gy- ptum|cum pri- mo-|ge- ni- tis|
w: |||||||
w: |||||||
w: |||||||
w: |||||||
w: |||||||
!>(! c4!>)! !fermata!=B4 || c16 |"^rit." c2 A2 A2"^rit." A2 | (G4 E4) | !fermata!F8 || %114
w: su- is:|et~~tu~~me~~flagel-|1a- tum tra- di-|di- *|sti:|
w: |||||
w: |||||
w: |||||
w: |||||
w: |||||
"^Andante"[Q:1/4=80] z4!p! A4 |!<(! A2 A2!<)! A4- |"^-"!>(! A4 A2!>)! A2 |!<(! c2 c2!<)!"^-" (c4 | %118
w: Po-|pu- le me-|* us, quid|fe- ci ti-|
w: ||||
w: ||||
w: ||||
w: ||||
w: ||||
"^-"!>(! B8) |!mf! !fermata![EA]8 | B2 c2 d2 dd |"^rit." d2 d2 d4 |"^rit." ^c4 d2 A2 | %123
w: |bi?|aut in quo con- tri-|sta- vi te?|res- pon- de|
w: |||||
w: |||||
w: |||||
w: |||||
w: |||||
 (G4"^-" E4)!>)! | !fermata!D8 |][K:G][M:3/2]!f!"^Andante"[Q:1/4=80] B4 B4 B4 | B8 A4 | G8 G4 | %128
w: mi- *|hi.|1. xil- la|re- gis|pro- de-|
w: ||3. ple- ta|sunt quae|con- ci-|
w: ||5. a- ta|cu- jus|bra- chi-|
w: ||7. fons sa-|lu- tis|Tri- ni-|
w: |||||
w: |||||
 F12 | A4 A4 B4 | c8 B4 |!>(! A8 F4 | [EG]12 |"^cresc." G4 B4 c4 | d8 G4!>)! | (c4 B4) A4 | A12 | %137
w: unt,|ful- get cru-|cis my-|ste- ri-|um,|1. vi- ta|mor- tem|pro- * tu-|lit,|
w: nit|Da- vid fi-|de- li|car- mi-|ne,|3. cen- do|na- ti-|o- * ni-|bus;|
w: is|pre- tium pe-|pen- dit|sae- cu-|li,|5. te- ra|fa- cta|cor- * po-|ris,|
w: tas,|col- lau- det|o- mnis|spi- ri-|tus:|7. bus cru-|cis vi-|cto- * ri-|am,|
w: |||||||||
w: |||||||||
!ff! B4 e4 d4 | B8 A4 |!>(! G8 F4!>)! |!mf! G12 || G12 | !fermata!G12 |] %143
w: et mor- te|vi- tam|pro- tu-|lit.|||
w: re- gna- vit|a li-|gno De-|us.|||
w: tu- lit- que|prae- dam|tar- ta-|ri.|||
w: lar- gi- ris|ad- de|prae- mi-|um.|A-|men.|
w: ||||||
w: ||||||
[M:3/2]!f!"^Andante"[Q:1/4=80] B4 B4 B4 | B8 A4 | G8 G4 | F12 | A4 A4 B4 | c8 B4 |!>(! A8 F4 | %150
w: 1. xil- la|re- gis|pro- de-|unt,|ful- get cru-|cis my-|ste- ri-|
w: 2. vul- ne-|ra- tus|in- su-|per|muc- ro- ne|di- ro|lan- ce-|
w: 4. a- ta,|cu- jus|brac- chi-|is|sae- cli pe-|pen- dit|pre- ti-|
w: 7. fons sa-|lu- tis,|Tri- ni-|tas,|col- lau- det|o- mnis|spi- ri-|
w: 5. ve, a\-ra,|sal- ve,|vic- ti-|ma,|de pas- si-|o- nis|glo- ri-|
w: |||||||
 [EG]12 |"^cresc." G4 B4 c4 | d8 G4!>)! | (c4 B4) A4 | [DA]12 |!ff! B4 e4 d4 | B8 A4 | %157
w: um,|1. car- ne|car- nis|con- * di-|tor|sus- pen- sus|est pa-|
w: ae,|2. nos la-|va- ret|cri- * mi-|ne,|ma- na- vit|un- da|
w: um;|4. te- ra|fa- cta|cor- * po-|ris|tu- lit- que|prae- dam|
w: tus;|7. per cru-|cis my-|ste- * ri-|um|sal- vas, fo-|ve per|
w: a,|5. vi- ta|mor- tem|per- * tu-|lit|et mor- te|vi- tam|
w: |||||||
!>(! [EG]8 F4!>)! | G12 ||!mf! G12 | !fermata![DG]12 |] %161
w: ti- bu-|lo.|||
w: san- gui-|ne.|||
w: tar- ta-|ri.|||
w: sae- cu-|la.|A-|men.|
w: red- di-|dit!|||
w: ||||
V:2
 (G3 F) E2 B,2 | E6 ^D2 | (E3 F) G2 F2 | E4 D2 G2 | (G2 cB A2) G2- | G2 F2 G4 | G2 F2 E2 G2 | %7
 F4 E4 | E4 E4 | ^D4 E2 E2 | E3 E E2 ^D2 | B,4 x4 | x2 E2 E2 ^F^G | A2 F2 =G3 G | F6 x2 | D6 ^D2 | %16
 E2 C2 G4- | G4 (G2 F2) | E4 z4 | C2 E2 E2 DC | B,8 | B,8 ||[M:3/4] B4 A2 | (^G4 B2- | B2 AG FE) | %25
 ^D4 D2 | E2 E2 EE | F4 G2 | G2 G3 G | G2 G4 | G4 F2 | G6 ||[M:4/4] G6 GF | E6 D2 | (C2 E4) E2 | %35
 ^D4 E2 E2 | F2 G2 (E4- | E2 ^D^C!>(! D4) | x8 ||[K:F][M:4/4] F4 | F2 E2!>)! (D4 | ^C4) D2 D2 | %42
 E2 E2 (F4 | D4 G4) | x8 | G2 A2 B2 BB | B3 A G4 | G4 F2 F2 | D4 ^C4 || D4 E2 D2 | F3 E F4 | %51
 x2 F2 F4 | D2 F4 E2 | F6 x2 | D2 D4 G2 | (B3 A G2) B2 | A2 A2 ^G2 G2 | A8 |[M:3/4] F8 || F3 F F2 | %60
 F4 E2 | F4 x2 ||[M:4/4] F4 F4 | (F2 E2) F4 ||[M:3/4] F3 F F2 | F4 E2 | F4 x2 || %67
[M:4/4] (F4 A2) G2 | F8 | x8 || F3 F F2 F2 | F3 F F2 F2 | (F3 G A2) G2 | F4 F4 | F3 F F2 F2 | %75
 E4 D4 | C2 C2 C2 D2 | (D6 ^C2) | D8 ||1 F16 || F4 F2 F2 | F4 F4 | G2 F2 (F2 E2) | F6 x2 | E16 | %85
 C2 C2 C4 | E2 EE D2 F2 | F4 F2 F2 | F2 E2 F4 | D2 D2 C4 | C4 C4 | C2 C2 C4 | F2 F2 F4 | D4 x4 | %94
 E16 | F4 F4 | F4 F2 A2 | ^G4 A4 | x2 F2 F2 FF | F2 F2 F2 G2 | G4 F4 | D2 E2 F2 E2 | (D6 ^C2) | %103
 x8 ||2 E4 E4 || F16 | F4 F4 | x2 E2 E2 E2 | F4 F2 F2 | F4 D4 || E16 | F2 F2 F2 F2 | (D4 ^C4) | %113
 D8 || x4 F4 | F2 E2 (D4 | ^C4) D2 D2 | E2 E2 (F4 | D4 G4) | x8 | G2 A2 B2 BB | B3 A G4 | %122
 G4 F2 F2 | (D6 ^C2) | D8 |][K:G][M:3/2] G4 G4 G4 | (G4 F4) E4 | (E4 D4) ^C4 | D12 | D4 E4 G4 | %130
 (A4 F4) G4 | (F6 E2) ^D4 | x12 | E4 E4 E4 | D8 B,4 | E8 E4 | D12 | D4 G4 A4 | (G4 F4) E4 | E8 D4 | %140
 D12 || E12 | D12 |][M:3/2] G4 G4 G4 | (G4 F4) E4 | (E4 D4) ^C4 | D12 | D4 E4 G4 | (A4 F4) G4 | %149
 (F6 E2) ^D4 | x12 | E4 E4 E4 | D8 B,4 | E8 E4 | x12 | D4 G4 A4 | (G4 F4) E4 | x8 D4 | D12 || E12 | %160
 x12 |] %161
V:3
 z8 |!p! (B,3 A,) G,2 F,2 | E,6"^-" F,2 |!<(! G,2 G,A,!<)! B,4 | C2 E2 E2 E2 | A,4 B,4 |!p! z8 | %7
w: |||||||
w: |Ca- * li- ga-|ve- runt|o- cu- li me-|i a fle- tu|me- o,||
w: |||||||
 D2 C2 E2 D2 | C3 B, A,2 E,2 | F,4 G,2 G,2 | A,2 C2 B,3!pp! A, | G,4!f! z2 E,2 |!f! (E3 D C2) D2 | %13
w: qui- a e- *|ga- tus est a|me, * *||||
w: ||||||
w: |||||* Vi- de- *|
 E2 DC D3 B, | A,6!pp! z2 | G,4 G,4 | (G,2"^-" E4) _E2 | _E4 D4 |"^-" C4 z4 | A,2 C2 C2 B,A, | %20
w: |||||lis||
w: |||||||
w: ||Si est|do- * lor|si- mi-|||
 (G,4 F,4) | G,8 ||[M:3/4]!p! z6 | E4 D2 |"^-" C6 |"^-"!f! B,4 B,2 | B,2 G,2 G,G, | A,4 B,2 | %28
w: |||O vos|o-|mnes, *|||
w: ||||||||
w: ||||||||
 B,2 B,3 B, | C2 (E3 D) | CB,!p! A,4 | B,6 ||[M:4/4]!pp! (D4 E2) B,2 | B,4 B,4 | C6 A,2 | %35
w: |||||||
w: |||||||
w: |||||||
 B,4 B,2 G,2 |"^-" A,2 G,2 A,2 C2 |"^-" [B,,B,]8 | B,8 ||[K:F][M:4/4]!p! D4 | A,2 G,2 F,4- | %41
w: * si- *|* cut do- lor|me-|us.|||
w: ||||||
w: ||||||
 F,2 E,2 F,4 | z2 G,2 A,2 A,2 | B,4 D4- | D4!mf! !fermata!^C4 | D2 F2 F2 FF | G2 DC B,4 | %47
w: |quid fe- ci|ti- *|bi? *|||
w: ||||||
w: ||||||
 A,2 G,2 A,2 A,2 | B,4 A,4 || A,4 A,2 B,2 | C2 C2 C4 | z2 A,2 A,4 | B,2 D2 G,3 C | C6 z2 | %54
w: |||||||
w: |||||||
w: |||||||
!f! G2 G4 D2 | D6 G2 | F2 E2 D3 E | F4 E4 |[M:3/4] D8 ||!p! C3 C C2 | D4 C2 | C4 z2 || %62
w: ||||||||
w: ||||||||
w: ||||||||
[M:4/4]!f! A,4 B,2 A,2 | G,4 A,4 ||[M:3/4]!p! C3 C C2 | D4 C2 | C4 z2 ||[M:4/4]!f! A,4 C2 G,2 | %68
w: ||||||
w: ||||||
w: ||||||
 A,4 [G,=B,]4 | [G,C]8 ||!p! C3 C C2 C2 | A,3 A, A,2 A,2 | D3 E F2 E2 | D4 C4 |!mf! D3 D C2 C2 | %75
w: |||||||
w: |||||||
w: |||||||
 C2 B,2 A,4 | G,2 F,2 F,2 F,2 | B,3 A, G,2 A,2 | A,8 ||1!ff! B,16 || A,4 A,2 A,2 | A,4 D4 | %82
w: |||||||
w: |||||||
w: |||||||
 D2 C2 D2 B,2 | C6 z2 |!p! C16 | A,2 F,2 E,4 | G,2 G,A, B,2 B,2 | A,4 A,2 A,2 | G,2 C2 C4 | %89
w: |||||||
w: |||||||
w: |||||||
 B,2 B,2 G,4 | F,4 E,4 | F,2 F,2 F,4 | A,2 A,2 A,4 | G,4 z4 | G,16 | A,4 A,4 | A,4 D2 C2 | %97
w: ||||||||
w: ||||||||
w: ||||||||
 =B,4 A,4 | z2 A,2 A,2 A,A, | _B,2 B,2 C2 D2 | C4 C4 | D2 B,2 C2 B,2 | A,4 G,4 |!p! F,8 ||2 %104
w: |||||||
w: |||||||
w: |||||||
!f! C4 G,4 || A,16 | D4 C4 | z2 C2 C2 C2 | C4 C2 C2 | A,4 G,4 || G,16 | A,2 C2 D2 A,2 | B,4 A,4 | %113
w: |||||||||
w: |||||||||
w: |||||||||
 A,8 ||!p! z4 D4 | A,2 G,2 F,4- | F,2 E,2 F,4 | z2 G,2 A,2 A,2 | B,4 D4- | D4!mf! !fermata!^C4 | %120
w: ||||quid fe- ci|ti- *|bi? *|
w: |||||||
w: |||||||
 D2 F2 F2 FF | G2 DC B,4 | A,2 G,2 A,2 A,2 | B,4 A,4 | F,8 |][K:G][M:3/2] D4 E4 B,4 | [B,,D]8 C4 | %127
w: |||||||
w: |||||||
w: |||||||
 B,8 A,2 G,2 | [D,A,]12 | F,4 A,4 D4 | E4 C4 D4 | C8 B,4 | [E,B,]12 | B,4 G,4 G,4 | G,4 F,4 G,4 | %135
w: ||||||||
w: ||||||||
w: ||||||||
 G,8 G,4 | F,12 | G,4 B,4 D4 | D8 C4 | B,4 A,4 A,4 | B,12 || C12 | B,12 |][M:3/2] D4 E4 B,4 | %144
w: |||||||||
w: |||||||||
w: |||||||||
 [B,,D]8 C4 | B,8 A,2 G,2 | [D,A,]12 | F,4 A,4 D4 | E4 C4 D4 | C8 B,4 | [E,B,]12 | B,4 G,4 G,4 | %152
w: ||||||||
w: ||||||||
w: ||||||||
 G,4 F,4 G,4 | G,8 G,4 | [D,F,]12 | G,4 B,4 D4 | D8 C4 | B,4 A,4 A,4 | B,12 || C12 | B,12 |] %161
w: |||||||||
w: |||||||||
w: |||||||||
V:4
 x8 | (G,3 F,) E,2 B,,2 | E,6 D,2 | C,2 C,C, G,,4 | C,2 A,,2 C,2 ^C,2 | D,4 !fermata!G,,4 | x8 | %7
 D,2 A,2 E,3 E, | A,,2 A,,2 C,2 C,2 | B,,4 E,2 E,2 | C,2 A,,2 B,,3 B,, | [E,,E,]4 z4 | %12
 z2 C,2 C3 B, | A,2 A,2 G,3 G, | D,6 x2 | G,,4 B,,4 | C,6 C,2 | C,4 G,,4 | A,,4 x4 | %19
 A,,3 A,, A,,2 A,,2 | B,,8 | !fermata![E,,E,]8 ||[M:3/4] x6 | E,4 E,2 | A,,6 | B,,4 B,,2 | %26
 E,2 E,2 E,E, | D,4 G,2 | G,2 E,3 E, | C,2 C,4 | C,2 D,4 | !fermata!G,,6 ||[M:4/4] G,4 E,4 | %33
 E,4 B,,4 | A,,6 C,2 | B,,4 (E,4 | D,2) E,2 C,2 A,,2 | x8 | !fermata!E,8 ||[K:F][M:4/4] D,4 | %40
 D,2 D,2 (D,4 | A,,4) D,4 | x2 C,2 F,2 F,2 | G,8 | A,8 | G,2 F,2 B,2 B,A, | G,2 G,2 G,4 | %47
 E,4 D,2 D,2 | G,,4 A,,4 || D,4 C,2 B,,2 | A,,2 G,,2 F,,4 | x2 F,2 F,4 | G,2 D,2 C,4 | F,6 x2 | %54
 G,2 G,4 G,2 | G,3 A, B,2 G,2 | D,2 C,2 B,,2 B,2 | A,8 |[M:3/4] [D,A,]8 || F,3 F, F,2 | B,,4 C,2 | %61
 F,4 x2 ||[M:4/4] F,4 B,,4 | C,4 !fermata!F,4 ||[M:3/4] F,3 F, F,2 | B,,4 C,2 | F,4 x2 || %67
[M:4/4] F,6 E,2 | (D,4 G,,4) | !fermata!C,8 || F,3 F, F,2 F,2 | F,3 F, F,2 D,2 | B,,4 A,,4 | %73
 B,,4 !fermata!F,4 | D,3 D, F,2 F,2 | C,4 D,4 | E,2 F,2 A,,2 B,,2 | (G,,2 B,,4 A,,2) | %78
 !fermata!D,8 ||1 B,,16 || D,4 D,2 D,2 | D,4 D,4 | G,2 A,2 G,4 | F,6 x2 | C,16 | F,2 F,2 C,4 | %86
 C,2 C,C, B,,2 B,,2 | D,4 F,2 F,2 | C,2 C,2 F,4 | G,2 G,2 E,4 | F,4 C,4 | F,2 F,2 F,4 | %92
 F,2 F,2 F,4 | G,4 x4 | C,16 | F,4 F,4 | D,4 D,2 D,2 | E,4 A,,4 | x2 D,2 D,2 D,D, | %99
 B,,2 B,,2 A,,2 G,,2 | E,4 F,4 | B,2 G,2 F,2 C,2 | (D,4 A,,4) | D,8 ||2 C,4 C,4 || F,16 | %106
 B,,4 F,4 | x2 C,2 C,2 C,2 | F,4 F,2 F,2 | F,4 G,4 || C,16 | F,2 F,2 D,2 D,2 | (G,,4 A,,4) | %113
 !fermata!D,8 || x4 D,4 | D,2 D,2 (D,4 | A,,4) D,4 | x2 C,2 F,2 F,2 | G,8 | A,8 | %120
 G,2 F,2 B,2 B,A, | G,2 G,2 G,4 | E,4 D,2 D,2 | (G,,4 A,,4) | !fermata!D,8 |] %125
[K:G][M:3/2] G,4 E,4 E,4 | x8 C,4 | E,8 E,4 | x12 | D,4 C,4 B,,4 | A,,8 G,,4 | A,,8 B,,4 | x12 | %133
 E,4 E,4 E,4 | B,,8 E,4 | C,8 ^C,4 | D,12 | G,4 E,4 F,4 | G,4 B,,4 C,4 | (E,4 C,4) D,4 | G,,12 || %141
 C,12 | !fermata!G,,12 |][M:3/2] G,4 E,4 E,4 | x8 C,4 | E,8 E,4 | x12 | D,4 C,4 B,,4 | A,,8 G,,4 | %149
 A,,8 B,,4 | x12 | E,4 E,4 E,4 | B,,8 E,4 | C,8 ^C,4 | x12 | G,4 E,4 F,4 | G,4 B,,4 C,4 | %157
 (E,4 C,4) D,4 | G,,12 || C,12 | !fermata!G,,12 |] %161

